!!!COM:	Bach, Johann Sebastian
!!!CDT:	1685/02/21/-1750/07/28/
!!!OTL@@DE:	Nun danket alle Gott
!!!SCT:	BWV 252
!!!PC#:	330
!!!AGN:	chorale
**kern	**kern	**kern	**kern
*ICvox	*ICvox	*ICvox	*ICvox
*Ibass	*Itenor	*Ialto	*Isoprn
*I"Bass	*I"Tenor	*I"Alto	*I"Soprano
*>[A,A,B]	*>[A,A,B]	*>[A,A,B]	*>[A,A,B]
*>norep[A,B]	*>norep[A,B]	*>norep[A,B]	*>norep[A,B]
*>A	*>A	*>A	*>A
*clefF4	*clefGv2	*clefG2	*clefG2
*k[f#]	*k[f#]	*k[f#]	*k[f#]
*G:	*G:	*G:	*G:
*M4/4	*M4/4	*M4/4	*M4/4
*met(c)	*met(c)	*met(c)	*met(c)
*MM100	*MM100	*MM100	*MM100
4G	4B	4g	4dd
=1	=1	=1	=1
4F#	8AL	4a	4dd
.	8dJ	.	.
4G	4B	4g	4dd
8CL	4c	4g	4ee
8DJ	.	.	.
8EL	4c	8gL	4ee
8CJ	.	8aJ	.
=2	=2	=2	=2
2.G;	2.d;	2.b;	2.dd;
4G	4d	4g	4b
=3	=3	=3	=3
8GL	4.d	4a	4cc
8F#J	.	.	.
4G	.	4d	4b
.	8g	.	.
8DL	4f#	4d	4a
8CJ	.	.	.
8BBL	8gL	8dL	8bL
8EJ	8GJ	8eJ	8ccJ
=4	=4	=4	=4
8CL	4e	16eLL	2a
.	.	16f#JJ	.
16BBL	.	4g	.
16CJJ	.	.	.
8DL	4A	.	.
8DDJ	.	8f#	.
4GG;	4B;	4d;	4g;
=:|!	=:|!	=:|!	=:|!
*>B	*>B	*>B	*>B
8DL	4A	8f#L	4a
8EJ	.	8gJ	.
=5	=5	=5	=5
8F#L	4d	8aL	4a
8EJ	.	8gJ	.
8F#L	4c	8aL	4a
8DJ	.	8f#J	.
8GGL	8BL	4d	4b
8AAJ	8cJ	.	.
8BBL	4d	4g	4b
8CJ	.	.	.
=6	=6	=6	=6
2.D;	2.d;	2.f#;	2.a;
4D	8dL	4f#	4a
.	8cJ	.	.
=7	=7	=7	=7
4G	8BL	8dL	8bL
.	8AJ	8eJ	8cc#J
8F#L	8AL	4f#	4dd
8BJ	8dJ	.	.
8GL	8dL	4b	4dd
8EJ	8gJ	.	.
8AL	16eLL	8aL	4cc#
.	16dJ	.	.
8AAJ	8eJ	8gJ	.
=8	=8	=8	=8
2.D;	2.d;	2.f#;	2.dd;
4G	4B	4g	4dd
=9	=9	=9	=9
4C	4c	8gL	4ee
.	.	8aJ	.
8GL	8dL	4b	4dd
8FJ	16eL	.	.
.	16fnXJJ	.	.
8EL	8gL	8bL	4cc
8FJ	8cJ	8aJ	.
8DL	8fL	8aL	4b
8EJ	8eJ	8g#J	.
=10	=10	=10	=10
2.AA;	2.e;	2.a;	2.cc;
8BL	4gnX	4d	4b
8GJ	.	.	.
=11	=11	=11	=11
8DL	8f#L	4.d	4a
8F#J	8dJ	.	.
8GL	8BL	.	8bL
8CJ	8AJ	8e	8ccJ
4D	8AL	8f#L	4.a
.	8BJ	8gJ	.
4DD	8cL	4f#	.
.	8AJ	.	8g
=12	=12	=12	=12
2.GG;	2.B;	2.d;	2.g;
==	==	==	==
*-	*-	*-	*-
!!!hum2abc: -Q ''
!!!title: @{PC#}. @{OTL@@DE}
!!!YOR1: 371 vierstimmige Choralges&auml;nge von Johann Sebastian Bach, 
!!!YOR2: 4th ed. by Alfred D&ouml;rffel (Leipzig: Breitkopf und H&auml;rtel, 
!!!YOR2: c.1875). 178 pp. Plate "V.A.10".  reprint: J.S. Bach, 371 Four-Part 
!!!YOR4: Chorales (New York: Associated Music Publishers, Inc., c.1940).
!!!SMS: B&H, 4th ed, Alfred D&ouml;rffel, c.1875, plate V.A.10
!!!EED:  Craig Stuart Sapp
!!!EEV:  2009/05/22
